X:150
T:Lady Forbes
R:Reel
O:Ireland
B:O'Neill's 1411
S:O'Neill's 1411
Z:Transcription, arrangement, chords: Mike Long
M:C|
L:1/8
K:D
"D"DFAd BAGF|"A"Eeed "G"cAGE|"D"DFAd BAGF|"G"GBAG "A"FDEC|\
"D"DFAd BAGF|
"A"Eeef "G"gecA|"D"DFAd BAGF|"G"GBAG "D"FDD2:|\
|:"D"dcdA dfed|"A"cAeA fAeA|"D"dcdA dfed|
"A"cdef "G"dcBA|\
"D"dcdA dfed|"A"cdef "G"gecA|"D"dcdA "G"BdAF|[1 "G"GBAG "D"FDD2:|[2 "G"GBAG "A"FDEC|]
